!!!OTL: "Liebe ueber alles" VOM WALD BIN I FIARA
!!!ARE: Europa, Mitteleuropa, Oesterreich
!!!SCT: Z1235
!!!YEM: Copyright 1995, estate of Helmut Schaffrath.
**kern
*ICvox
*Ivox
*M3/4
*k[f#]
*G:
{4g
=1
8g
8dd
8cc#
8dd
4b
=2
8a
8ee
8dd#
8ee
4cc}
=3
{8f#
8ee
8dd#
8ee
4cc
=4
8b
8gg
8ff#
8gg
4dd}
=5
{8g
8dd
8cc#
8dd
4b
=6
8a
8ee
8dd#
8ee
4cc}
=7
{8f#
8ee
8dd#
8ee
8cc
8f#
=8
2g}
==
!!!AGN: Liebes - Lied
!!!ONB: ESAC (Essen Associative Code) Database: ZUCCAL
!!!AMT: simple triple
!!!AIN: vox
!!!EED: Helmut Schaffrath
!!!EEV: 1.0
*-
